assets/icons/weather-sunny.svg

<?xml version="1.0" encoding="UTF-8" standalone="no"?>
<svg
   xmlns:dc="http://purl.org/dc/elements/1.1/"
   xmlns:cc="http://creativecommons.org/ns#"
   xmlns:rdf="http://www.w3.org/1999/02/22-rdf-syntax-ns#"
   xmlns:svg="http://www.w3.org/2000/svg"
   xmlns="http://www.w3.org/2000/svg"
   xmlns:sodipodi="http://sodipodi.sourceforge.net/DTD/sodipodi-0.dtd"
   xmlns:inkscape="http://www.inkscape.org/namespaces/inkscape"
   inkscape:version="1.0beta2 (2b71d25, 2019-12-03)"
   sodipodi:docname="weather-sunny.svg"
   viewBox="0 0 24 24"
   height="24"
   width="24"
   id="mdi-weather-sunny"
   version="1.1">
  <metadata
     id="metadata987">
    <rdf:RDF>
      <cc:Work
         rdf:about="">
        <dc:format>image/svg+xml</dc:format>
        <dc:type
           rdf:resource="http://purl.org/dc/dcmitype/StillImage" />
      </cc:Work>
    </rdf:RDF>
  </metadata>
  <defs
     id="defs985" />
  <sodipodi:namedview
     inkscape:current-layer="mdi-weather-sunny"
     inkscape:window-maximized="0"
     inkscape:window-y="183"
     inkscape:window-x="2560"
     inkscape:cy="9.6661375"
     inkscape:cx="4.3544837"
     inkscape:zoom="27.953436"
     showgrid="false"
     id="namedview983"
     inkscape:window-height="1395"
     inkscape:window-width="1280"
     inkscape:pageshadow="2"
     inkscape:pageopacity="0"
     guidetolerance="10"
     gridtolerance="10"
     objecttolerance="10"
     borderopacity="1"
     inkscape:document-rotation="0"
     bordercolor="#666666"
     pagecolor="#ffffff" />
  <path
     style="fill:#ffd54f;fill-opacity:1"
     sodipodi:nodetypes="cssscccsccccccccccccccccccccccccscc"
     inkscape:connector-curvature="0"
     id="path980"
     d="m 12,7 c 2.761424,0 5,2.2385763 5,5 0,2.761424 -2.238576,5 -5,5 C 9.2385763,17 7,14.761424 7,12 7,9.2385763 9.2385763,7 12,7 m 0,-5 2.39,3.42 C 13.65,5.15 12.84,5 12,5 11.16,5 10.35,5.15 9.61,5.42 L 12,2 M 3.34,7 7.5,6.65 C 6.9,7.16 6.36,7.78 5.94,8.5 5.5,9.24 5.25,10 5.11,10.79 L 3.34,7 m 0.02,10 1.76,-3.77 c 0.14,0.77 0.41,1.55 0.83,2.27 0.42,0.74 0.96,1.36 1.55,1.87 L 3.36,17 M 20.65,7 18.88,10.79 C 18.74,10 18.47,9.23 18.05,8.5 17.63,7.78 17.1,7.15 16.5,6.64 L 20.65,7 m -0.01,10 -4.14,0.36 c 0.59,-0.51 1.12,-1.14 1.54,-1.86 0.42,-0.73 0.69,-1.5 0.83,-2.29 L 20.64,17 M 12,22 9.59,18.56 C 10.33,18.83 11.14,19 12,19 c 0.82,0 1.63,-0.17 2.37,-0.44 z" />
</svg>

<?xml version="1.0" encoding="UTF-8"?><!DOCTYPE svg PUBLIC "-//W3C//DTD SVG 1.1//EN" "http://www.w3.org/Graphics/SVG/1.1/DTD/svg11.dtd"><svg xmlns="http://www.w3.org/2000/svg" xmlns:xlink="http://www.w3.org/1999/xlink" version="1.1" id="mdi-weather-sunny" width="24" height="24" viewBox="0 0 24 24"><path d="M12,7A5,5 0 0,1 17,12A5,5 0 0,1 12,17A5,5 0 0,1 7,12A5,5 0 0,1 12,7M12,9A3,3 0 0,0 9,12A3,3 0 0,0 12,15A3,3 0 0,0 15,12A3,3 0 0,0 12,9M12,2L14.39,5.42C13.65,5.15 12.84,5 12,5C11.16,5 10.35,5.15 9.61,5.42L12,2M3.34,7L7.5,6.65C6.9,7.16 6.36,7.78 5.94,8.5C5.5,9.24 5.25,10 5.11,10.79L3.34,7M3.36,17L5.12,13.23C5.26,14 5.53,14.78 5.95,15.5C6.37,16.24 6.91,16.86 7.5,17.37L3.36,17M20.65,7L18.88,10.79C18.74,10 18.47,9.23 18.05,8.5C17.63,7.78 17.1,7.15 16.5,6.64L20.65,7M20.64,17L16.5,17.36C17.09,16.85 17.62,16.22 18.04,15.5C18.46,14.77 18.73,14 18.87,13.21L20.64,17M12,22L9.59,18.56C10.33,18.83 11.14,19 12,19C12.82,19 13.63,18.83 14.37,18.56L12,22Z" /></svg>
